X: 1
T: the Twelfth of January (for Robert!)
C: Barbara McOwen (Feb 1982)
R: jig
Z: 2006 John Chambers <jc:trillian.mit.edu>
S: handwritten MS probably from Barbara
B: Pinewoods Alternates
M: 6/8
L: 1/8
K: A
g \
| "A"a2A "A7"Ace | "D"fdf "E7"efg | "A"a2A "F#m"ABc | "B7"cBB "E7"B2g \
| "A"a2A "A7"Ace | "D"fdf "E7"efg | "A"agf "E7"edB | "A"cAA A2 :|
d \
| "A"cee "Bm"dee | "A"cee "E7"Bee | "A"Ace "F#m"edc | "B7"cBB "E7"B2d \
| "A"cee "Bm"dee | "A"cee     efg | "D"agf "E7"edB | "A"cAA A2 |]
d \
| "A"cee "Bm"dee | "A"cee "E7"Bee | "A"Ace "F#m"edc | "B7"cBB "E7"B2c \
| "A"Ace "A7"ecA | "D"def "Bm"fga | "E7"gbg efg | "A"aec A2 |]
